chrome/img/svgs/question-icon.svg

<?xml version="1.0" encoding="UTF-8"?>
<svg width="74px" height="74px" viewBox="0 0 74 74" version="1.1" xmlns="http://www.w3.org/2000/svg" xmlns:xlink="http://www.w3.org/1999/xlink">
    <!-- Generator: Sketch 42 (36781) - http://www.bohemiancoding.com/sketch -->
    <title>question-icon</title>
    <desc>Created with Sketch.</desc>
    <defs></defs>
    <g id="Playground" stroke="none" stroke-width="1" fill="none" fill-rule="evenodd">
        <g id="question-icon" fill-rule="nonzero" fill="rgba(142,142,142, .82
          )">
            <g id="Icons">
                <g>
                    <path d="M37,0 C16.5266667,0 0,16.5266667 0,37 C0,57.4733333 16.5266667,74 37,74 C57.4733333,74 74,57.4733333 74,37 C74,16.5266667 57.4733333,0 37,0 Z M37,57.5555556 C34.5333333,57.5555556 32.56,55.5822222 32.56,53.1155556 C32.56,50.6488889 34.5333333,48.6755556 37,48.6755556 L37,48.6755556 C39.4666667,48.6755556 41.44,50.6488889 41.44,53.1155556 C41.44,55.5822222 39.4666667,57.5555556 37,57.5555556 Z M47.0311111,32.56 C46.5377778,33.2177778 45.9622222,33.8755556 45.3866667,34.4511111 C44.9755556,34.8622222 44.4822222,35.2733333 43.9066667,35.9311111 C43.2488889,36.5066667 42.7555556,37 42.3444444,37.4933333 C41.9333333,37.9044444 41.5222222,38.3155556 41.2755556,38.6444444 C40.5355556,39.6311111 40.2066667,40.9466667 40.2888889,42.18 L40.2888889,44.7288889 L33.8755556,44.7288889 L33.8755556,41.2755556 C33.7933333,40.1244444 33.9577778,38.9733333 34.4511111,37.8222222 C35.1088889,36.7533333 35.8488889,35.7666667 36.8355556,34.8622222 L40.9466667,30.7511111 C41.8511111,29.7644444 42.2622222,28.5311111 42.2622222,27.2155556 C42.2622222,25.9 41.7688889,24.6666667 40.8644444,23.7622222 C39.96,22.8577778 38.6444444,22.3644444 37.3288889,22.3644444 C36.0133333,22.2822222 34.6977778,22.7755556 33.7111111,23.68 C32.7244444,24.5844444 32.1488889,25.9 32.0666667,27.2155556 L25.16,27.2155556 C25.4066667,24.1733333 26.8044444,21.2955556 29.1066667,19.3222222 C31.4911111,17.3488889 34.4511111,16.3622222 37.5755556,16.4444444 C40.5355556,16.28 43.4955556,17.2666667 45.7977778,19.1577778 C47.9355556,20.9666667 49.0044444,23.5977778 49.0044444,26.8866667 C48.9222222,28.9422222 48.2644444,30.9977778 47.0311111,32.56 Z" id="question-icon"></path>
                </g>
            </g>
        </g>
    </g>
</svg>

<svg width="74" height="74" viewBox="0 0 74 74" xmlns="http://www.w3.org/2000/svg"><title>question-icon</title><path d="M37 0C16.527 0 0 16.527 0 37s16.527 37 37 37 37-16.527 37-37S57.473 0 37 0zm0 57.556a4.422 4.422 0 0 1-4.44-4.44 4.422 4.422 0 0 1 4.44-4.44 4.422 4.422 0 0 1 4.44 4.44 4.422 4.422 0 0 1-4.44 4.44zM47.031 32.56a18.07 18.07 0 0 1-1.644 1.891c-.411.411-.905.822-1.48 1.48-.658.576-1.151 1.069-1.563 1.562-.41.411-.822.823-1.068 1.151-.74.987-1.07 2.303-.987 3.536v2.549h-6.413v-3.453a7.3 7.3 0 0 1 .575-3.454c.658-1.069 1.398-2.055 2.385-2.96l4.11-4.11c.905-.988 1.316-2.22 1.316-3.536 0-1.316-.493-2.55-1.398-3.454-.904-.904-2.22-1.398-3.535-1.398-1.316-.082-2.631.412-3.618 1.316-.987.904-1.562 2.22-1.644 3.536H25.16c.247-3.043 1.644-5.92 3.947-7.894 2.384-1.973 5.344-2.96 8.469-2.878 2.96-.164 5.92.823 8.222 2.714 2.138 1.809 3.206 4.44 3.206 7.729-.082 2.055-.74 4.11-1.973 5.673z" fill-rule="nonzero" fill="rgba(142,142,142, .82 )"/></svg>
